X: 36302
T: Seamus Mor McKenna's
R: reel
M: 4/4
K: Dmajor
BdAG FDAD|FDAD BDAD|BdAG FDAD GE(3EEE|GABc:|
defg afdf|(3gagfg edce|1 defg afdf|
gabg e2 (3ABc:|2 dABA FAdf|gabg eABA||

